X: 883
T: Shenandoah Breakdown
C:Bill Monroe as played by Kenny Baker
B: jims roots
M:C|
L:1/8
Q: 1/4=100
K:A
V:1 
           "A"[e2e] ef ecBc | "D"dcde fgaf | "E"ecAc BAGB |[1 A2"A"AB A2 :|[2 A2"A"AB A2[D2A] ||
|: "D"[DA]FAF DFAB | =cBcB ABAF | "A"A,CEC A,CEF | =GFGF EFEF |
"D"DFAF DFAB | =cBcB A^cAc | "E"efec BAGB |[1 A2"A"AB A2[D2A] |[2 "A"A8|]
V:Ae 
V:ce 
 | "A"[e2e] ef ecBc | "D"dcde fgaf | "A"efed cBAc | "E"BAGF [E3B]c |
% abcbook-tune_id 6298c287309b9dc1f848005c


% abcbook-boost 0
% abcbook-tablature 
% abcbook-transpose 
% abcbook-lastupdated 1654178440307
% abcbook-soundfonts 
% abcbook-repeats 1


